X: 322
T: 8. Lensiene Venitiene
T: Lensiene Venitiene
B: Robert Landrin "Potpourri fran\,cois des contre-danse ancienne tel quil se danse chez la Reine ..." 1760 p.32 #2 dance 10 #8
S: http://memory.loc.gov/cgi-bin/query/D?musdibib:2:./temp/~ammem_EbRS:
Z: 2014 John Chambers <jc:trillian.mit.edu>
N: The rhythm between the strains is mismatched.  There are missing 1/16 rests before the small notes.
M: 2/2
L: 1/8
K: G
% - - - - - - - - - - - - - - - - - - - - - - - - -
D/E/F/ |\
G4 !+!F4 | G6 d/e/f/ | g2fe d2c2 | !+!B4 A4 |\
GFGA G2F2 | !+!E3F G2F2 | E2D2 E2C2 | D6 :||:\
"2.F."A4 B4 | G6 z/B/c/d/ |
e2d2 c2B2 | !+!A4 A4 |\
DCDE D2G2 | E4 z2e2 | EDEF E2A2 | F4 z2f2 |\
GFGA G2c2 | !+!B2AB c2B2 | A2G2 A2F2 | G4 G4 :|
% - - - - - - - - - - - - - - - - - - - - - - - - -

%%sep 1 1 500
%%sep 1 1 500
